apps/files/img/recent.svg

<?xml version="1.0" encoding="UTF-8" standalone="no"?>
<svg
   xmlns:dc="http://purl.org/dc/elements/1.1/"
   xmlns:cc="http://creativecommons.org/ns#"
   xmlns:rdf="http://www.w3.org/1999/02/22-rdf-syntax-ns#"
   xmlns:svg="http://www.w3.org/2000/svg"
   xmlns="http://www.w3.org/2000/svg"
   xmlns:sodipodi="http://sodipodi.sourceforge.net/DTD/sodipodi-0.dtd"
   xmlns:inkscape="http://www.inkscape.org/namespaces/inkscape"
   height="16"
   width="16"
   version="1.0"
   id="svg2"
   inkscape:version="0.91 r13725"
   sodipodi:docname="recent.svg">
  <metadata
     id="metadata12">
    <rdf:RDF>
      <cc:Work
         rdf:about="">
        <dc:format>image/svg+xml</dc:format>
        <dc:type
           rdf:resource="http://purl.org/dc/dcmitype/StillImage" />
        <dc:title></dc:title>
      </cc:Work>
    </rdf:RDF>
  </metadata>
  <defs
     id="defs10">
    <inkscape:path-effect
       end_linecap_type="round"
       miter_limit="4"
       linejoin_type="round"
       start_linecap_type="round"
       interpolator_beta="0.2"
       interpolator_type="Linear"
       sort_points="true"
       offset_points="0.0020340812,1.2666157 | 1,0.61733535"
       is_visible="true"
       id="path-effect4152"
       effect="powerstroke" />
    <inkscape:path-effect
       effect="powerstroke"
       id="path-effect4144"
       is_visible="true"
       offset_points="0.0027133369,1.4486864 | 1,0.61733535"
       sort_points="true"
       interpolator_type="Linear"
       interpolator_beta="0.2"
       start_linecap_type="round"
       linejoin_type="round"
       miter_limit="4"
       end_linecap_type="round" />
    <inkscape:path-effect
       effect="spiro"
       id="path-effect4142"
       is_visible="true" />
  </defs>
  <sodipodi:namedview
     pagecolor="#ffffff"
     bordercolor="#666666"
     borderopacity="1"
     objecttolerance="10"
     gridtolerance="10"
     guidetolerance="10"
     inkscape:pageopacity="0"
     inkscape:pageshadow="2"
     inkscape:window-width="1920"
     inkscape:window-height="1024"
     id="namedview8"
     showgrid="true"
     showguides="false"
     inkscape:guide-bbox="true"
     inkscape:zoom="16"
     inkscape:cx="14.262393"
     inkscape:cy="6.7015339"
     inkscape:window-x="0"
     inkscape:window-y="0"
     inkscape:window-maximized="1"
     inkscape:current-layer="svg2">
    <sodipodi:guide
       position="8.2455842,15.029015"
       orientation="0,1"
       id="guide4716" />
    <sodipodi:guide
       position="1.0067283,7.0950375"
       orientation="1,0"
       id="guide4718" />
    <sodipodi:guide
       position="8.2695539,1.0067283"
       orientation="0,1"
       id="guide4720" />
    <sodipodi:guide
       position="14.981076,0.047939443"
       orientation="1,0"
       id="guide4722" />
    <sodipodi:guide
       position="6.6440678,6.7118644"
       orientation="-0.70710678,0.70710678"
       id="guide4146" />
    <sodipodi:guide
       position="16.237288,-0.27118644"
       orientation="0.70710678,0.70710678"
       id="guide4148" />
    <inkscape:grid
       type="xygrid"
       id="grid4170" />
  </sodipodi:namedview>
  <rect
     style="color:#000000"
     fill-opacity="0"
     height="97.986"
     width="163.31"
     y="-32.993"
     x="-62.897"
     id="rect4" />
  <path
     style="color:#000000;font-style:normal;font-variant:normal;font-weight:normal;font-stretch:normal;font-size:medium;line-height:normal;font-family:sans-serif;text-indent:0;text-align:start;text-decoration:none;text-decoration-line:none;text-decoration-style:solid;text-decoration-color:#000000;letter-spacing:normal;word-spacing:normal;text-transform:none;direction:ltr;block-progression:tb;writing-mode:lr-tb;baseline-shift:baseline;text-anchor:start;white-space:normal;clip-rule:nonzero;display:inline;overflow:visible;visibility:visible;opacity:1;isolation:auto;mix-blend-mode:normal;color-interpolation:sRGB;color-interpolation-filters:linearRGB;solid-color:#000000;solid-opacity:1;fill:#000000;fill-opacity:1;fill-rule:nonzero;stroke:none;stroke-width:1.99999988;stroke-linecap:butt;stroke-linejoin:miter;stroke-miterlimit:4;stroke-dasharray:none;stroke-dashoffset:0;stroke-opacity:1;color-rendering:auto;image-rendering:auto;shape-rendering:auto;text-rendering:auto;enable-background:accumulate"
     d="M 8 0 C 3.5935667 0 0 3.5935667 0 8 C 0 12.406433 3.5935667 16 8 16 C 12.406433 16 16 12.406433 16 8 C 16 3.5935667 12.406433 0 8 0 z M 8 2 C 11.325553 2 14 4.6744468 14 8 C 14 11.325553 11.325553 14 8 14 C 4.6744468 14 2 11.325553 2 8 C 2 4.6744468 4.6744468 2 8 2 z M 7.5585938 2.9316406 C 7.2246276 2.939112 6.9571883 3.2108788 6.9550781 3.5449219 L 6.1035156 7.9863281 L 6.1035156 7.9980469 C 5.9213828 8.754901 6.4395966 9 7.0195312 9.3515625 L 7.0253906 9.3535156 L 10.023438 10.931641 C 10.675781 11.434245 11.429688 10.455729 10.777344 9.953125 L 9 8.0078125 L 9 8 L 8.1914062 3.5507812 C 8.1925327 3.2029912 7.9062763 2.9229194 7.5585938 2.9316406 z "
     id="path4138" />
</svg>

<?xml version="1.0" encoding="UTF-8" standalone="no"?>
<svg xmlns="http://www.w3.org/2000/svg" height="16" width="16" version="1.0">
 <rect style="color:#000000" fill-opacity="0" height="97.986" width="163.31" y="-32.993" x="-62.897"/>
 <path style="color-rendering:auto;text-decoration-color:#000000;color:#000000;isolation:auto;mix-blend-mode:normal;shape-rendering:auto;solid-color:#000000;block-progression:tb;text-decoration-line:none;text-decoration-style:solid;image-rendering:auto;white-space:normal;text-indent:0;text-transform:none" d="m8 0c-4.4064 0-8 3.5936-8 8 0 4.406 3.5936 8 8 8 4.406 0 8-3.594 8-8 0-4.4064-3.594-8-8-8zm0 2c3.326 0 6 2.6744 6 6 0 3.326-2.674 6-6 6-3.3256 0-6-2.674-6-6 0-3.3256 2.6744-6 6-6zm-0.4414 0.9316c-0.334 0.0075-0.6014 0.2793-0.6035 0.6133l-0.8516 4.4414v0.0117c-0.1821 0.7569 0.3361 1.002 0.916 1.3536l0.0059 0.0019 2.9976 1.5785c0.653 0.502 1.407-0.476 0.754-0.9789l-1.777-1.9453v-0.0078l-0.8086-4.4492c0.0011-0.3478-0.2851-0.6279-0.6328-0.6192z"/>
</svg>
